src/images/svg/markets/variable-spreads-new.svg

<svg width="50" height="50" viewBox="0 0 50 50" fill="none" xmlns="http://www.w3.org/2000/svg">
<rect opacity="0.01" x="1" y="1" width="48" height="48" fill="white" stroke="#979797"/>
<path fill-rule="evenodd" clip-rule="evenodd" d="M3.689 27.7051C2.204 27.7051 1 28.9101 1 30.3951V45.9531C1 47.4391 2.204 48.6431 3.689 48.6431C5.175 48.6431 6.379 47.4391 6.379 45.9531V30.3951C6.379 28.9101 5.175 27.7051 3.689 27.7051Z" fill="#85ACAF"/>
<path fill-rule="evenodd" clip-rule="evenodd" d="M14.2701 14.5859C12.7851 14.5859 11.5801 15.7899 11.5801 17.2759V45.9539C11.5801 47.4399 12.7851 48.6449 14.2701 48.6449C15.7551 48.6449 16.9601 47.4399 16.9601 45.9539V17.2759C16.9601 15.7899 15.7551 14.5859 14.2701 14.5859Z" fill="#85ACAF"/>
<path fill-rule="evenodd" clip-rule="evenodd" d="M24.8531 32.9727C23.3681 32.9727 22.1641 34.1767 22.1641 35.6627V45.9527C22.1641 47.4397 23.3681 48.6437 24.8531 48.6437C26.3391 48.6437 27.5431 47.4397 27.5431 45.9527V35.6627C27.5431 34.1767 26.3391 32.9727 24.8531 32.9727Z" fill="#85ACAF"/>
<path fill-rule="evenodd" clip-rule="evenodd" d="M35.4341 22.7773C33.9491 22.7773 32.7441 23.9823 32.7441 25.4673V45.9533C32.7441 47.4403 33.9491 48.6443 35.4341 48.6443C36.9191 48.6443 38.1241 47.4403 38.1241 45.9533V25.4673C38.1241 23.9823 36.9191 22.7773 35.4341 22.7773Z" fill="#85ACAF"/>
<path fill-rule="evenodd" clip-rule="evenodd" d="M46.3091 16.627C44.8231 16.627 43.6191 17.832 43.6191 19.317V45.954C43.6191 47.44 44.8231 48.644 46.3091 48.644C47.7951 48.644 48.9991 47.44 48.9991 45.954V19.317C48.9991 17.832 47.7951 16.627 46.3091 16.627Z" fill="#85ACAF"/>
<g style="mix-blend-mode:multiply">
<path fill-rule="evenodd" clip-rule="evenodd" d="M24.8531 14.5859C23.3681 14.5859 22.1641 15.7899 22.1641 17.2759V23.2679C22.1641 24.7529 23.3681 25.9579 24.8531 25.9579C26.3391 25.9579 27.5431 24.7529 27.5431 23.2679V17.2759C27.5431 15.7899 26.3391 14.5859 24.8531 14.5859Z" fill="#FF444F"/>
</g>
<g style="mix-blend-mode:multiply">
<path fill-rule="evenodd" clip-rule="evenodd" d="M35.4341 8.81641C33.9491 8.81641 32.7441 10.0214 32.7441 11.5064V31.4854C32.7441 32.9704 33.9491 34.1754 35.4341 34.1754C36.9191 34.1754 38.1241 32.9704 38.1241 31.4854V11.5064C38.1241 10.0214 36.9191 8.81641 35.4341 8.81641Z" fill="#FF444F"/>
</g>
<g style="mix-blend-mode:multiply">
<path fill-rule="evenodd" clip-rule="evenodd" d="M46.3091 1C44.8231 1 43.6191 2.205 43.6191 3.69V19.331C43.6191 20.816 44.8231 22.021 46.3091 22.021C47.7941 22.021 48.9991 20.816 48.9991 19.331V3.69C48.9991 2.205 47.7941 1 46.3091 1Z" fill="#FF444F"/>
</g>
</svg>

<svg width="50" height="50" fill="none" xmlns="http://www.w3.org/2000/svg"><path opacity=".01" fill="#fff" stroke="#979797" d="M1 1h48v48H1z"/><path fill-rule="evenodd" clip-rule="evenodd" d="M3.689 27.705A2.69 2.69 0 0 0 1 30.395v15.558a2.69 2.69 0 1 0 5.379 0V30.395a2.69 2.69 0 0 0-2.69-2.69ZM14.27 14.586a2.69 2.69 0 0 0-2.69 2.69v28.678a2.691 2.691 0 0 0 5.38 0V17.276a2.69 2.69 0 0 0-2.69-2.69ZM24.853 32.973a2.69 2.69 0 0 0-2.689 2.69v10.29a2.69 2.69 0 1 0 5.38 0v-10.29a2.69 2.69 0 0 0-2.69-2.69ZM35.434 22.777a2.69 2.69 0 0 0-2.69 2.69v20.486a2.69 2.69 0 1 0 5.38 0V25.467a2.69 2.69 0 0 0-2.69-2.69ZM46.31 16.627a2.69 2.69 0 0 0-2.69 2.69v26.637a2.69 2.69 0 1 0 5.38 0V19.317a2.69 2.69 0 0 0-2.69-2.69Z" fill="#85ACAF"/><path fill-rule="evenodd" clip-rule="evenodd" d="M24.853 14.586a2.69 2.69 0 0 0-2.689 2.69v5.992a2.69 2.69 0 1 0 5.38 0v-5.992a2.69 2.69 0 0 0-2.69-2.69ZM35.434 8.816a2.69 2.69 0 0 0-2.69 2.69v19.98a2.69 2.69 0 0 0 5.38 0v-19.98a2.69 2.69 0 0 0-2.69-2.69ZM46.31 1a2.69 2.69 0 0 0-2.69 2.69v15.641a2.69 2.69 0 0 0 5.38 0V3.69A2.69 2.69 0 0 0 46.31 1Z" fill="#FF444F" style="mix-blend-mode:multiply"/></svg>
